!!!COM: Bach, Johann Sebastian
!!!OTA: Das wohltemperirte Clavier
!!!OPR: Das wohltemperierte Klavier
!!!OTL: Fuga 22, Vol. 2
!!!XEN: The Well-Tempered Clavier, Volume 2, Fugue 22.
!!!ONB: B-flat minor, 4-part
!!!SCT: BWV 891b
!!!YEC: Copyright 1994, David Huron
!!!YEM: Rights to all derivative electronic formats reserved.
**kern	**kern	**kern	**kern
*staff2	*staff2	*staff1	*staff1
*clefF4	*clefF4	*clefG2	*clefG2
*k[b-e-a-d-g-]	*k[b-e-a-d-g-]	*k[b-e-a-d-g-]	*k[b-e-a-d-g-]
*M3/2	*M3/2	*M3/2	*M3/2
*b-:	*b-:	*b-:	*b-:
*MM130	*MM130	*MM130	*MM130
=1	=1	=1	=1
1.r	1.r	2B-	1.r
.	.	2c	.
.	.	4r	.
.	.	4d-	.
=2	=2	=2	=2
1.r	1.r	4e-	1.r
.	.	4An	.
.	.	2B-	.
.	.	4r	.
.	.	4c	.
=3	=3	=3	=3
1.r	1.r	8d-	1.r
.	.	8B-	.
.	.	8c	.
.	.	8d-	.
.	.	8e-	.
.	.	8c	.
.	.	8d-	.
.	.	8e-	.
.	.	8f	.
.	.	8d-	.
.	.	8e-	.
.	.	8f	.
=4	=4	=4	=4
1.r	1.r	8g-	1.r
.	.	8e-	.
.	.	4f	.
.	.	4r	.
.	.	4g-	.
.	.	4c	.
.	.	8d-	.
.	.	8e-	.
=5	=5	=5	=5
1.r	1.r	4d-	2f
.	.	4An	.
.	.	4B-	2gn
.	.	4Bn	.
.	.	2c	4r
.	.	.	4a-
=6	=6	=6	=6
1.r	1.r	4r	4b-
.	.	4c	4en
.	.	4d-	2f
.	.	4dn	.
.	.	4e-	4r
.	.	4en	4gn
=7	=7	=7	=7
1.r	1.r	[1.f	8a-
.	.	.	8f
.	.	.	8gn
.	.	.	8a-
.	.	.	8b-
.	.	.	8g
.	.	.	8a-
.	.	.	8b-
.	.	.	8cc
.	.	.	8a-
.	.	.	8b-
.	.	.	8cc
=8	=8	=8	=8
1.r	1.r	4f]	8dd-
.	.	.	8b-
.	.	8en	4cc
.	.	8dn	.
.	.	2e	4r
.	.	.	4dd-
.	.	4r	4gn
.	.	[4e-	8an
.	.	.	8b-
=9	=9	=9	=9
1.r	1.r	4e-]	4an
.	.	8dn	4ff
.	.	8c	.
.	.	2d	4r
.	.	.	4b-
.	.	4r	4f
.	.	[4d-	8gn
.	.	.	8a-
=10	=10	=10	=10
1.r	1.r	4d-]	4gn
.	.	8c	2ee-
.	.	8B-	.
.	.	4c	.
.	.	4g-	2an
.	.	4f	.
.	.	[4e-	8b-
.	.	.	8cc
=11	=11	=11	=11
2BB-	1.r	4e-]	4f
.	.	4dn	2b-
2C	.	4e-	.
.	.	4en	8an
.	.	.	8gn
4r	.	2f	4a
4D-	.	.	4b-
=12	=12	=12	=12
4E-	1.r	4r	8cc
.	.	.	8dd-
4AAn	.	4f	2ee-
2BB-	.	4g-	.
.	.	4gn	4dd-
4r	.	4a-	8cc
.	.	.	8ee-
4C	.	4an	4gg-
=13	=13	=13	=13
8D-	1.r	[1.b-	4ff
8BB-	.	.	.
8C	.	.	4r
8D-	.	.	.
8E-	.	.	4cc
8C	.	.	.
8D-	.	.	4r
8E-	.	.	.
8F	.	.	4dd-
8D-	.	.	.
8E-	.	.	4r
8F	.	.	.
=14	=14	=14	=14
8G-	1.r	4b-]	[2ee-
8E-	.	.	.
4F	.	8an	.
.	.	8gn	.
4r	.	2a	8ee-]
.	.	.	8dd-
4G-	.	.	8cc
.	.	.	8dd-
4C	.	4r	4ee-
8Dn	.	[4a-	4cc
8E-	.	.	.
=15	=15	=15	=15
4Dn	1.r	4a-]	4ff
4B-	.	8gn	4ddn
.	.	8f	.
4r	.	2g	8b-
.	.	.	8a-
4E-	.	.	8b-
.	.	.	8cc
4BB-	.	4r	4dd-
8C	.	[4g-	4b-
8D-	.	.	.
=16	=16	=16	=16
4C	1.r	4g-]	4ee-
4AA-	.	8f	4cc
.	.	8e-	.
4D-	.	2.f	4a-
8C	.	.	4dd-
8BB-	.	.	.
4AA-	.	.	4cc
4GGn	.	4B-	4en
=17	=17	=17	=17
4AA-	2F	4c	[2f
4AAn	.	8d-	.
.	.	8e-	.
4BB-	2Gn	4d-	4f]
4BBn	.	4r	8en
.	.	.	8dn
2C	4r	2r	4e
.	4A-	.	4cc
=18	=18	=18	=18
4r	4B-	4r	4dd-
4C	4En	2a-	2cc
4D-	2F	.	.
4Dn	.	8gn	4bn
.	.	8f	.
4E-	4r	8g	[2cc
.	.	8a-	.
4En	4Gn	4b-	.
=19	=19	=19	=19
[1.F	8A-	4a-	4cc]
.	8F	.	.
.	8Gn	4r	4r
.	8A-	.	.
.	8B-	4gn	4een
.	8G	.	.
.	8A-	4r	4r
.	8B-	.	.
.	8c	4a-	4ff
.	8A-	.	.
.	8B-	4r	4r
.	8c	.	.
=20	=20	=20	=20
4F]	8d-	4b-	[1.ggn
.	8B-	.	.
8En	4c	4r	.
8Dn	.	.	.
1E	4r	4gn	.
.	4d-	4r	.
.	4Gn	4cc	.
.	8A-	4r	.
.	8B-	.	.
=21	=21	=21	=21
8F	4A-	4c	4gg]
8En	.	.	.
8F	4r	4r	8ff
8Gn	.	.	8een
4A-	4r	4cc	[1ff
4r	4f	4r	.
4An	4c	4f	.
4r	8d-	4r	.
.	8e-	.	.
=22	=22	=22	=22
4B-	4d-	8b-	1.ff_
.	.	8cc	.
8BB-	4F	4dd-	.
8C	.	.	.
4D-	4B-	4r	.
4r	4r	4b-	.
4Dn	4c-	4f	.
4r	4r	8g-	.
.	.	8a-	.
=23	=23	=23	=23
8E-	4B-	4g-	4ff]
8Dn	.	.	.
8E-	4r	4e-	8gg-
8F	.	.	8ff
4G-	4r	4b-	[1ee-
4r	4e-	4r	.
4Gn	4B-	4e-	.
4r	8c	4r	.
.	8d-	.	.
=24	=24	=24	=24
4A-	4c	8a-	1.ee-_
.	.	8b-	.
8AA-	4E-	4cc	.
8BB-	.	.	.
4C	4A-	4r	.
4r	4r	4a-	.
4AA-	4C	4e-	.
4r	4r	8f	.
.	.	8g-	.
=25	=25	=25	=25
4DD-	4D-	4f	4ee-]
4r	4E-	4g-	8dd-
.	.	.	8cc
2r	4F	2.a-	4dd-
.	4D-	.	4ff
2r	4G-	.	4b-
.	4B-	8g-	[4dd-
.	.	8f	.
=26	=26	=26	=26
1.r	4E-	4g-	4dd-]
.	4G-	4e-	8cc
.	.	.	8dd-
.	4C	4r	4ee-
.	4E-	2g-	4cc
.	4F	.	4an
.	4An	8f	[4cc
.	.	8e-	.
=27	=27	=27	=27
1.r	2B-	4d-	4cc]
.	.	4r	4b-
.	2c	2an	4r
.	.	.	[4gg-
.	4r	2b-	8gg-]
.	.	.	8ff
.	4d-	.	8ee-
.	.	.	8dd-
=28	=28	=28	=28
1.r	4e-	4r	8cc
.	.	.	8dd-
.	4An	4cc	4ee-
.	2B-	4dd-	4r
.	.	4gn	4bb-
.	4r	2an	4ccc
.	4c	.	[4ee-
=29	=29	=29	=29
1.r	8d-	4r	4ee-]
.	8B-	.	.
.	8c	4b-	4dd-
.	8d-	.	.
.	8e-	8cc	4gg-
.	8c	8an	.
.	8d-	8b-	4r
.	8e-	8cc	.
.	8f	8dd-	4ff
.	8d-	8b-	.
.	8e-	8cc	4r
.	8f	8dd-	.
=30	=30	=30	=30
1.r	8g-	8ee-	4bb-
.	8e-	8cc	.
.	4f	8dd-	4r
.	.	8ee-	.
.	4r	8ff	1aan
.	.	8dd-	.
.	4g-	4ee-	.
.	4c	4r	.
.	8d-	4ff	.
.	8e-	.	.
=31	=31	=31	=31
1.r	4d-	4b-	2bb-
.	4B-	8cc	.
.	.	8dd-	.
.	4e-	4cc	2r
.	8f	4b-	.
.	8g-	.	.
.	4f	4an	2r
.	4e-	8b-	.
.	.	8cc	.
=32	=32	=32	=32
1.r	4dn	4b-	1.r
.	8e-	4a-	.
.	8f	.	.
.	4e-	4gn	.
.	4d-	8a-	.
.	.	8b-	.
.	4c	4a-	.
.	8d-	4g-	.
.	8e-	.	.
=33	=33	=33	=33
2r	4d-	4f	2dd-
.	8c	8e-	.
.	8B-	8f	.
2C	[1A-	4g-	2ee-
.	.	8f	.
.	.	8e-	.
2D-	.	4d-	4r
.	.	4dd-	4ff
=34	=34	=34	=34
4r	1A-_	8cc	4gg-
.	.	8b-	.
4E-	.	8a-	4cc
.	.	8g-	.
4F	.	8f	2dd-
.	.	8e-	.
4BB-	.	4d-	.
2C	8A-]	[2a-	4r
.	8G-	.	.
.	8F	.	4ee-
.	8E-	.	.
=35	=35	=35	=35
4r	4D-	1a-]	8ff
.	.	.	8dd-
4D-	4d-	.	8ee-
.	.	.	8ff
8E-	4c	.	8gg-
8C	.	.	8ee-
8D-	4r	.	8ff
8E-	.	.	8gg-
8F	4A-	[2dd-	8aa-
8D-	.	.	8ff
8E-	4r	.	8gg-
8F	.	.	8aa-
=36	=36	=36	=36
8G-	4e-	1dd-]	8bb-
8E-	.	.	8gg-
8F	4r	.	4aa-
8G-	.	.	.
8A-	4f	.	4r
8F	.	.	.
4G-	8e-	.	4bb-
.	8d-	.	.
4r	[2a-	2cc	4ee-
4A-	.	.	8ff
.	.	.	8gg-
=37	=37	=37	=37
4D-	2a-]	4r	4ff
8E-	.	4dd-	4r
8F	.	.	.
4E-	2r	4cc	4gg-
8F	.	2cc-	4r
8G-	.	.	.
4F	2r	.	4aa-
4D-	.	8b-	4r
.	.	8a-	.
=38	=38	=38	=38
4G-	1.r	4b-	4r
8A-	.	4r	4gg-
8B-	.	.	.
4A-	.	4cc-	4ff
8B-	.	4r	2ff-
8c-	.	.	.
4B-	.	4dd-	.
4G-	.	4b-	8ee-
.	.	.	8dd-
=39	=39	=39	=39
4c-	4r	4g-	4ee-
4r	4e-	4r	8ffn
.	.	.	8gg-
4c-	4dn	4a-	4ff
4r	2d-	4r	8ggn
.	.	.	8aa-
4B-	.	4b-	2gg
4E-	8cn	4r	.
.	8B-	.	.
=40	=40	=40	=40
4A-	4c	4r	4aa-
4F	8B-	4a-	4r
.	8A-	.	.
4BB-	4d-	4gn	2r
4E-	8c	2g-	.
.	8B-	.	.
4C	4e-	.	2r
4AA-	8d-	8f	.
.	8c	8e-	.
=41	=41	=41	=41
4D-	4d-	4f	4r
2d-	4r	8gn	4ff
.	.	8a-	.
.	2r	4g-	4een
8c	.	8an	2ee-
8B-	.	8b-	.
4An	2r	4cc	.
4F	.	4a	8dd-
.	.	.	8cc
=42	=42	=42	=42
[1B-	2f	4b-	4dd-
.	.	4dd-	4bb-
.	2e-	4cc	4aan
.	.	4cc-	4aa-
4B-]	4r	2b-	8gg-
.	.	.	8ee-
4B-	4d-	.	4ff
=43	=43	=43	=43
8E-	4c	4r	4gg-
8D-	.	.	.
4E-	4g-	4b-	4cc
4F	2f	4an	4dd-
4FF	.	4a-	4ddn
4GGn	4r	4gn	4ee-
4AAn	4e-	4g-	4cc
=44	=44	=44	=44
4BB-	8d-	[1.f	4dd-
.	8f	.	.
4r	8e-	.	4r
.	8d-	.	.
4E-	8c	.	4an
.	8e-	.	.
4r	8d-	.	4r
.	8c	.	.
4D-	8B-	.	4b-
.	8d-	.	.
4r	8c	.	4r
.	8B-	.	.
=45	=45	=45	=45
4C	8An	2f]	4ee-
.	8c	.	.
8D-	4B-	.	[4dd-
8E-	.	.	.
2F	4r	2r	8dd-]
.	.	.	8cc
.	4A-	.	8dd-
.	.	.	8ee-
2FF	4e-	2r	2an
.	8d-	.	.
.	8c	.	.
=46	=46	=46	=46
2BB-	4d-	2b-	2b-
.	4g-	.	.
4r	4f	2a-	2r
4BB-	4f-	.	.
4C-	2e-	4r	2r
4Cn	.	4g-	.
=47	=47	=47	=47
8Dn	4r	4f	1.r
8F	.	.	.
2A-	4e-	4cc-	.
.	4dn	2b-	.
4Gn	4d-	.	.
4A-	4c	4r	.
4Dn	4c-	4a-	.
=48	=48	=48	=48
4E-	[1.B-	8g-	1.r
.	.	8b-	.
4r	.	8a-	.
.	.	8g-	.
4F	.	8f	.
.	.	8a-	.
4r	.	8g-	.
.	.	8f	.
4G-	.	8e-	.
.	.	8g-	.
4r	.	8f	.
.	.	8e-	.
=49	=49	=49	=49
4A-	4B-]	8dn	1.r
.	.	8f	.
4G-	4B-	4e-	.
8F	8A-	4r	.
8G-	8B-	.	.
4A-	4c-	4d	.
4Dn	4F	4a-	.
4BB-	4dn	8g-	.
.	.	8f	.
=50	=50	=50	=50
4E-	4e-	8g-	1.r
.	.	8a-	.
4D-	4f	2b-	.
8C	4g-	.	.
8D-	.	.	.
4E-	8c	8an	.
.	8d-	8b-	.
8AAn	4e-	4cc	.
8C	.	.	.
8F	4An	[4e-	.
8E-	.	.	.
=51	=51	=51	=51
8D-	8B-	4e-]	1.r
8F	8c	.	.
8B-	[4d-	4d-	.
8A-	.	.	.
8G-	4d-]	2.b-	.
8F	.	.	.
8E-	8c	.	.
8D-	8d-	.	.
8C	4e-	.	.
8D-	.	.	.
8E-	4G-	[4a-	.
8C	.	.	.
=52	=52	=52	=52
4D-	4F	8a-]	2dd-
.	.	8f	.
4BB-	2Gn	4b-	.
1C	.	4an	2cc
.	2F	4a-	.
.	.	2gn	4r
.	4En	.	4b-
=53	=53	=53	=53
4FF	4F	4r	4an
4r	4An	4g-	4ee-
2r	4B-	4f	2dd-
.	8A-	4f-	.
.	8Gn	.	.
2r	4A-	4e-	4r
.	8G-	4e--	4cc-
.	8F	.	.
=54	=54	=54	=54
1.r	4G-	[1d-	8b-
.	.	.	8dd-
.	4r	.	8cc-
.	.	.	8b-
.	4F	.	8a-
.	.	.	8cc-
.	4r	.	8b-
.	.	.	8a-
.	4E-	4d-]	8g-
.	.	.	8b-
.	4r	[4c-	8a-
.	.	.	8g-
=55	=55	=55	=55
1.r	[1.D-	4c-]	8f
.	.	.	8a-
.	.	8B-	4g-
.	.	8A-	.
.	.	8G-	4r
.	.	8B-	.
.	.	8A-	4f
.	.	8G-	.
.	.	8F	4cc-
.	.	8A-	.
.	.	8Gn	8b-
.	.	8F	8a-
=56	=56	=56	=56
1.r	4D-]	2Gn	4b-
.	8C-	.	2ee-
.	8BB-	.	.
.	4C	2A-	.
.	2F-	.	8dd-
.	.	.	8cc-
.	.	2B-	4dd-
.	8E-	.	[4gg-
.	8D-	.	.
=57	=57	=57	=57
1.r	4E-	2c-	4gg-]
.	2A-	.	8ff-
.	.	.	8ee-
.	.	2.B-	8dd-
.	.	.	8cc-
.	8Gn	.	8b-
.	8F	.	8a-
.	4G	.	[2b-
.	8A-	4f-	.
.	8B-	.	.
=58	=58	=58	=58
2E-	2c-	1.e-	4b-]
.	.	.	2a-
2D-	2B-	.	.
.	.	.	4gn
4r	4A-	.	[2a-
4C-	8B-	.	.
.	8c	.	.
=59	=59	=59	=59
4BB-	4d-	4r	4a-]
4F-	4r	4ddn	4aa-
2E-	4r	8ee-	4ggn
.	.	8b-	.
.	4e-	[4ee-	4gg-
4r	4fn	8ee-]	4ff
.	.	8dd-	.
4D-	4gn	8cc-	4ff-
.	.	8b-	.
=60	=60	=60	=60
8C-	4a-	4cc-	[1.ee-
8E-	.	.	.
8D-	4r	4r	.
8C-	.	.	.
8BB-	4gn	4dd-	.
8D-	.	.	.
8C-	4r	4r	.
8BB-	.	.	.
8AA-	4a-	4cc-	.
8C-	.	.	.
8BB-	4r	4r	.
8AA-	.	.	.
=61	=61	=61	=61
8GGn	4e-	4b-	4ee-]
8BB-	.	.	.
4AA-	4r	4r	8dd-
.	.	.	8cc-
4r	2r	2r	8dd-
.	.	.	8ff-
4GGn	.	.	8ee-
.	.	.	8dd-
4D-	2r	[2f-	8cc-
.	.	.	8b-
8C-	.	.	8a-
8BB-	.	.	8gn
=62	=62	=62	=62
4C-	1.r	4f-]	[1.a-
8c-	.	8e-	.
8B-	.	8d-	.
4c-	.	8e-	.
.	.	8fn	.
4e-	.	2g-	.
4cn	.	.	.
4A-	.	8f	.
.	.	8e-	.
=63	=63	=63	=63
4d-	1.r	[1.f	8a-]
.	.	.	8b-
4A-	.	.	8a-
.	.	.	8g-
4F	.	.	8a-
.	.	.	8b-
4D-	.	.	2cc-
4F	.	.	.
4A-	.	.	8b-
.	.	.	8a-
=64	=64	=64	=64
4Dn	1.r	8f]	[1.b-
.	.	8g-	.
8dn	.	8f	.
8c	.	8e-	.
4d	.	8f	.
.	.	8g-	.
4f	.	2a-	.
4d	.	.	.
4B-	.	8g-	.
.	.	8f	.
=65	=65	=65	=65
4e-	1.r	[1.g-	8b-]
.	.	.	8cc
4E-	.	.	8b-
.	.	.	8an
4G-	.	.	8b-
.	.	.	8cc
4B-	.	.	2dd-
4E-	.	.	.
4G-	.	.	8cc
.	.	.	8b-
=66	=66	=66	=66
4AAn	1.r	2g-]	8cc
.	.	.	8dd-
[4An	.	.	8cc
.	.	.	8b-
8A]	.	2.f	8cc
8B-	.	.	8dd-
8A	.	.	2ee-
8Gn	.	.	.
4A	.	.	.
4F	.	4an	8dd-
.	.	.	8cc
=67	=67	=67	=67
[2B-	2f	8b-	4dd-
.	.	8cc	.
.	.	2dd-	4r
8B-]	2e-	.	2gg-
8c	.	.	.
8B-	.	4cc	.
8An	.	.	.
[2B-	4r	4dd-	2ff
.	4d-	4f	.
=68	=68	=68	=68
8B-]	4c	4e-	4r
8c	.	.	.
8B-	4g-	4cc	4ee-
8An	.	.	.
[2B-	2f	4b-	4ddn
.	.	4ddn	4aa-
8B-]	4r	4ee-	2gg-
8c	.	.	.
8B-	4e-	[4cc	.
8A	.	.	.
=69	=69	=69	=69
2B-	8d-	8cc]	4r
.	8f	8an	.
.	8e-	2b-	4ff
.	8d-	.	.
4r	8c	.	8ee-
.	8e-	.	8gg-
4F	8d-	4a	8ff
.	8c	.	8ee-
[2G-	8B-	4b-	8dd-
.	8d-	.	8ff
.	8c	4r	8ee-
.	8B-	.	8dd-
=70	=70	=70	=70
4G-]	8An	1.r	8cc
.	8c	.	8ee-
8F	4B-	.	8dd-
8E-	.	.	8cc
[1F	4r	.	8b-
.	.	.	8dd-
.	4A	.	4cc
.	4e-	.	4r
.	8d-	.	4b-
.	8c	.	.
=71	=71	=71	=71
4F]	2.d-	1.r	4ff
4F	.	.	8ee-
.	.	.	8dd-
4G-	.	.	2.ee-
4Gn	8c	.	.
.	8B-	.	.
4A-	4c	.	.
4An	[4f	.	8dd-
.	.	.	8cc
=72	=72	=72	=72
4B-	4f]	1.r	8dd-
.	.	.	8ee-
8BB-	4en	.	8dd-
8C	.	.	8cc
4D-	4f	.	4b-
4Dn	4A-	.	2bb-
4E-	8Gn	.	.
.	8A-	.	.
4En	4B-	.	8aa-
.	.	.	8ggn
=73	=73	=73	=73
4F	8A-	2cc	[2aa-
.	8B-	.	.
4E-	8A-	.	.
.	8Gn	.	.
2D-	8F	2b-	4aa-]
.	8En	.	.
.	8F	.	2ggn
.	8G	.	.
2C	8A-	4r	.
.	8G	.	.
.	8A-	4a-	4ff
.	8B-	.	.
=74	=74	=74	=74
4r	4c	4gn	2een
4BB-	4r	4dd-	.
4AAn	4r	2cc	4ee-
4E-	4G-	.	4aan
2D-	4F	4r	4bb-
.	4Gn	4b-	4een
=75	=75	=75	=75
4r	8A-	8a-	4ff
.	8B-	8cc	.
4C	4c	8b-	4r
.	.	8a-	.
8BB-	2r	8gn	4een
8D-	.	8b-	.
8C	.	8a-	4r
8BB-	.	8g	.
8AA-	2r	8f	4ff
8C	.	8a-	.
8BB-	.	8g	4r
8AA-	.	8f	.
=76	=76	=76	=76
8GGn	4r	8en	4b-
8BB-	.	8gn	.
8AA-	4c	4f	8cc
8GG	.	.	8b-
8FF	4d-	4r	4a-
8AA-	.	.	.
4GGn	4B-	4en	8b-
.	.	.	8a-
4r	4En	4b-	4gn
4FF	[4F	8a-	4r
.	.	8g	.
=77	=77	=77	=77
4C	4F]	8a-	4r
.	.	8f	.
8BB-	4d-	4gn	4gn
8AA-	.	.	.
4BB-	2.En	4r	4dd-
4GGn	.	2g	8cc
.	.	.	8b-
[2AA-	.	.	[2cc
.	8Dn	8f	.
.	8C	8en	.
=78	=78	=78	=78
4AA-]	2.F	2.a-	4cc]
8GGn	.	.	8b-
8FF	.	.	8a-
2.BB-	.	.	2.dd-
.	8E-	8gn	.
.	8D-	8f	.
.	[2Gn	[2b-	.
8AA-	.	.	8cc
8GG	.	.	8b-
=79	=79	=79	=79
2.C	4G]	4b-]	2.ee-
.	8F	8a-	.
.	8E-	8gn	.
.	2.A-	2.cc	.
8BB-	.	.	8dd-
8AA-	.	.	8cc
[2D-	.	.	4ff
.	8Gn	8b-	4r
.	8F	8a-	.
=80	=80	=80	=80
4D-]	4B-	4gn	2ee-
4C	4c	4a-	.
4BB-	2Gn	4b-	2dd-
2E-	.	4B-	.
.	2A-	4c	4r
4Dn	.	[4a-	4cc
=81	=81	=81	=81
4E-	4r	4a-]	4b-
4D-	4B-	4gn	4ff
8C	4c	4a-	2ee-
8E-	.	.	.
8D-	4F	4r	.
8C	.	.	.
8BB-	2Gn	4b-	4r
8D-	.	.	.
8C	.	4r	4dd-
8BB-	.	.	.
=82	=82	=82	=82
4AA-	4r	4e-	8cc
.	.	.	8ee-
4r	4A-	4a-	8dd-
.	.	.	8cc
2r	8B-	4gn	8b-
.	8Gn	.	8dd-
.	8A-	4g-	8cc
.	8B-	.	8b-
[2A-	8c	4f	8a-
.	8A-	.	8cc
.	8B-	4f-	8b-
.	8c	.	8a-
=83	=83	=83	=83
4A-]	8d-	4e-	8gn
.	8B-	.	8b-
4A-	8c	4r	4a-
.	8d-	.	.
8Gn	8e-	2r	4r
8A-	8c	.	.
4B-	4d-	.	4g
4E-	4r	2r	4dd-
[4G-	4e-	.	8cc
.	.	.	8b-
=84	=84	=84	=84
4G-]	4A-	1.r	4cc
2F	8B-	.	4dd-
.	8c	.	.
.	4B-	.	2.g-
4E-	8c	.	.
.	8d-	.	.
4BB-	[2e-	.	.
8C	.	.	4g-
8D-	.	.	.
=85	=85	=85	=85
4C	4e-]	1.r	4ee-
4AA-	2g-	.	8dd-
.	.	.	8cc
4BB-	.	.	4dd-
4C	8f	.	4ee-
.	8e-	.	.
4D-	4f	.	[2a-
4C-	4a-	.	.
=86	=86	=86	=86
4BB-	4dn	1.r	4a-]
8AA-	4r	.	4a-
8GG-	.	.	.
4AA-	4r	.	4ff
4BB-	4B-	.	8ee-
.	.	.	8ddn
4C	4a-	.	4ee-
4Dn	8g-	.	4ff
.	8f	.	.
=87	=87	=87	=87
8E-	8g-	1.r	2.b-
8Dn	8f	.	.
8E-	4g-	.	.
8F	.	.	.
4G-	2.c	.	.
4F	.	.	8an
.	.	.	8gn
4E-	.	.	4a
4D-	[4B-	.	4b-
=88	=88	=88	=88
4C	4B-]	1.r	[1e-
4D-	8An	.	.
.	8Gn	.	.
4C	4A-	.	.
4BB-	4c	.	.
4AAn	[2F	.	4e-]
4FF	.	.	8d-
.	.	.	8c
=89	=89	=89	=89
2BB-	4F]	2r	4d-
.	8E-	.	2b-
.	8D-	.	.
2C	4E-	2g-	.
.	2e-	.	4an
4r	.	2f	4.b-
4D-	[4d-	.	.
.	.	.	8a-
=90	=90	=90	=90
4E-	4d-]	4r	2g-
4AAn	2c	4e-	.
2BB-	.	4dn	4f
.	4c-	4a-	4ddn
4r	4B-	2g-	4ee-
4Cn	4An	.	8dd-
.	.	.	8cc
=91	=91	=91	=91
8D-	[1.B-	4r	4ff
8BB-	.	.	.
8C	.	4f	4r
8D-	.	.	.
8E-	.	8e-	4g-
8C	.	8g-	.
8D-	.	8f	4r
8E-	.	8e-	.
8F	.	8d-	4f
8D-	.	8f	.
8E-	.	8e-	4r
8F	.	8d-	.
=92	=92	=92	=92
8G-	4B-]	8c	4e-
8E-	.	8e-	.
4F	4An	8d-	4r
.	.	8c	.
4r	2B-	8B-	2r
.	.	8d-	.
4G-	.	4c	.
4C	[2A-	4r	2r
8Dn	.	4B-	.
8E-	.	.	.
=93	=93	=93	=93
4Dn	2A-]	4f	2r
4BB-	.	8e-	.
.	.	8dn	.
4E-	2Gn	2e-	4r
4D-	.	.	4b-
4C	2G-	4r	[2ee-
4BB-	.	4e-	.
=94	=94	=94	=94
4AAn	[1F	2.cc	4ee-]
4FF	.	.	8dd-
.	.	.	8cc
4BB-	.	.	[1dd-
4C	.	8b-	.
.	.	8an	.
4D-	8F]	[2b-	.
.	8G-	.	.
4BB-	8F	.	.
.	8En	.	.
=95	=95	=95	=95
4F	2.F	2.b-]	4dd-]
4FF	.	.	8cc
.	.	.	8b-
[2F	.	.	2cc
.	4c	8an	.
.	.	8gn	.
8F]	2f	2a	2r
8G-	.	.	.
8E-	.	.	.
8F	.	.	.
=96	=96	=96	=96
8G-	2r	2d-	2b-
8A-	.	.	.
8G-	.	.	.
8F	.	.	.
2E-	2G-	2e-	2cc
2D-	2F	4r	4r
.	.	4f	4dd-
=97	=97	=97	=97
4r	4r	4g-	4ee-
4C	4E-	4c	4an
4BB-	4Dn	2dn	2b-
4F	4A-	.	.
2E-	2G-	4r	4r
.	.	4an	4cc
=98	=98	=98	=98
4r	4r	8b-	8dd-
.	.	8gn	8b-
4D-	4F	8an	8cc
.	.	8b-	8dd-
8C	8E-	8cc	8ee-
8E-	8G-	8a	8cc
8D-	8F	8b-	8dd-
8C	8E-	8cc	8ee-
8BB-	8D-	8dd-	8ff
8D-	8F	8b-	8dd-
8C	8E-	8cc	8ee-
8BB-	8D-	8dd-	8ff
=99	=99	=99	=99
8AAn	8C	8ee-	8gg-
8C	8E-	8cc	8ee-
8BB-	8D-	4dd-	4ff
8AA	8C	.	.
8GGn	8BB-	4r	4r
8BB-	8D-	.	.
4AA	4C	4ee-	4gg-
4r	4r	4an	4cc
4FF	4F	8b-	8dd-
.	.	8cc	8ee-
=100	=100	=100	=100
4BB-	4f	4b-	4dd-
4E-	4e-	4g-	4cc
2F	2d-	1f	2b-
2FF	2c	.	4.anM
.	.	.	8b-
=101	=101	=101	=101
1.BB-;	1.dn;	1.f;	1.b-;
==	==	==	==
*-	*-	*-	*-
!!!CDT: 1685/3/-1750/7/28
!!!OCY: Deutschland
!!!PPP: Leipzig
!!!ODT: 1738//-1742//
!!!PDT: 1739//-1742//
!!!AFR: fuga; fugue
!!!AST: polyphony
!!!AMT: simple triple
!!!SCA: Bach-Werke-Verzeichnis
!!!YOR: Bach Gesellschaft
!!!SMS: British Library, various
!!!AIN: cemba; clavi
!!!EEV: 1.0
!!!RDT: 1986 December 14
!!!YER: 1994 August 10
!!!EFL: 46/48
!!!VTS: 479981485
